assets/fonts/svg-files-for-custom-font/tree.svg

<svg enable-background="new 0 0 20 20" viewBox="0 0 20 20" xmlns="http://www.w3.org/2000/svg"><path d="m20 10c0-1.361-.758-2.616-2.031-3.622-.002-.001-.004-.001-.005-.003-.362-3.572-3.787-6.375-7.964-6.375s-7.602 2.803-7.964 6.375c-.001.002-.003.002-.005.003-1.273 1.006-2.031 2.261-2.031 3.622 0 3.112 3.947 5.669 9 5.97v1.03c0 1-1.821 1.911-1.821 1.911-.099.049-.148.173-.109.277 0 0 .305.812.93.812s1.124-.5 2.374-.5 2.439.432 2.439.432c.102.038.251.005.329-.073l.717-.717c.078-.078.058-.173-.046-.212 0 0-1.812-.68-1.812-1.93 0-.312 0-.706 0-1.121 4.564-.555 7.999-2.976 7.999-5.879zm-18 0c0-1.019.768-1.945 2.022-2.651-.01-.116-.022-.232-.022-.349 0-2.762 2.687-5 6-5s6 2.238 6 5c0 .117-.012.233-.021.349 1.253.706 2.021 1.632 2.021 2.651 0 1.864-2.551 3.424-5.999 3.869 0-.401 0-.668 0-.668 0-.11.065-.262.145-.337l1.833-1.726c.08-.076.146-.227.146-.337v-.851c0-.11-.078-.155-.172-.099l-1.779 1.047c-.096.056-.173.012-.173-.099v-3.599c0-.11-.085-.172-.19-.137l-2.621.874c-.104.035-.189.153-.189.263v2.6c0 .11-.079.158-.177.107l-2.022-1.064c-.097-.051-.24-.03-.318.048l-.342.342c-.078.078-.073.201.009.273l2.7 2.361c.083.073.15.222.15.332v.765c-3.945-.245-7.001-1.924-7.001-3.964z"/></svg>

<?xml version="1.0" encoding="utf-8"?>
<!-- Generator: Adobe Illustrator 18.1.0, SVG Export Plug-In . SVG Version: 6.00 Build 0)  -->
<!DOCTYPE svg PUBLIC "-//W3C//DTD SVG 1.1//EN" "http://www.w3.org/Graphics/SVG/1.1/DTD/svg11.dtd">
<svg version="1.1" id="Tree" xmlns="http://www.w3.org/2000/svg" xmlns:xlink="http://www.w3.org/1999/xlink" x="0px" y="0px"
	 viewBox="0 0 20 20" enable-background="new 0 0 20 20" xml:space="preserve">
<path d="M20,10c0-1.361-0.758-2.616-2.031-3.622c-0.002-0.001-0.004-0.001-0.005-0.003C17.602,2.803,14.177,0,10,0
	S2.398,2.803,2.036,6.375C2.035,6.377,2.033,6.377,2.031,6.378C0.758,7.384,0,8.639,0,10c0,3.112,3.947,5.669,9,5.97
	c0,0.338,0,0.683,0,1.03c0,1-1.821,1.911-1.821,1.911C7.08,18.96,7.031,19.084,7.07,19.188C7.07,19.188,7.375,20,8,20
	s1.124-0.5,2.374-0.5s2.439,0.432,2.439,0.432c0.102,0.038,0.251,0.005,0.329-0.073l0.717-0.717
	c0.078-0.078,0.058-0.173-0.046-0.212c0,0-1.812-0.68-1.812-1.93c0-0.312,0-0.706,0-1.121C16.565,15.324,20,12.903,20,10z M2,10
	c0-1.019,0.768-1.945,2.022-2.651C4.012,7.233,4,7.117,4,7c0-2.762,2.687-5,6-5s6,2.238,6,5c0,0.117-0.012,0.233-0.021,0.349
	C17.232,8.055,18,8.981,18,10c0,1.864-2.551,3.424-5.999,3.869c0-0.401,0-0.668,0-0.668c0-0.11,0.065-0.262,0.145-0.337l1.833-1.726
	c0.08-0.076,0.146-0.227,0.146-0.337V9.95c0-0.11-0.078-0.155-0.172-0.099l-1.779,1.047c-0.096,0.056-0.173,0.012-0.173-0.099V7.2
	c0-0.11-0.085-0.172-0.19-0.137L9.19,7.937C9.086,7.972,9.001,8.09,9.001,8.2v2.6c0,0.11-0.079,0.158-0.177,0.107L6.802,9.843
	c-0.097-0.051-0.24-0.03-0.318,0.048l-0.342,0.342c-0.078,0.078-0.073,0.201,0.009,0.273l2.7,2.361
	c0.083,0.073,0.15,0.222,0.15,0.332c0,0,0,0.298,0,0.765C5.056,13.719,2,12.04,2,10z"/>
</svg>
